X:1
T:[ID 1-114a]
T:[ID 1-114a]
T:Bezeichnung standardisiert: Menuett Men.
T:Urheber unbekannt Datum in der hier transkribierten schriftlichen Quelle: vermutlich vor 1767
C:Urheber unbekannt
C:Datum in der hier transkribierten schriftlichen Quelle: vermutlich vor 1767
L:1/8
M:none
K:D
V:1 treble 
V:1
 DF A2 d2 |"^cis" d2 Bc A2 |"^a" B,"^cis"D E2 G2 | F2 EF D2 | DF A2 d2 | cedcBA | BdcBA"^\201*"G | %7
 A6 :: A2 A2 FD | B2 B2 GE | c2 cABc | dc d4 |"^O)" A2 g2 ec | dfec d2 |"^O)" A2 g2 ec | dfec d2 | %16
 G2 F2 E2 | D6 :| %18

